X:1
T:Title
%%score 1 { 2 | 3 }
L:1/8
Q:1/4=85
M:2/4
K:Bb
V:1 treble nm="Grand Piano, Soprano"
V:2 bass nm="Choir Pad, Balclutha, 11.11 D"
V:3 bass 
V:1
 BD EG | F2 F2 | [Fc][Fd] [Fe][Fd] | [Fc]4 | [Fd][Fd] [Fc][Fc] | [=EB]2 [FA]2 | %6
w: By~Heart~Pease~Danks,~1897 * * *||||||
 [DG][DA] [=EB][CE] | [CF]4 | [CF][CG] [FA][FB] | [FAc]2 [FA]2 | [FA][FB] [Fc][Fd] | [Fe]4 | %12
w: ||||||
 [Fd][Fc] [FB][FA] | [EG]>[FA] [GB][EG] | [DF][DB] [EB][EA] | [DB]4- | [DB]4 |] %17
w: |||||
V:2
 B,D, E,G, | F,2 F,2 | A,B, CB, | A,4 | B,B,[K:treble] CC | C2 C2 | B,[K:bass]A, G,B, | A,4 | %8
 A,B,[K:treble] CD | E2 C2 | C[K:bass]B, A,B, | C4 | B,A, B,B, | B,2 B,2 | B,B, CC | B,4- | B,4 |] %17
V:3
 z4 | z4 | F,F, F,F, | F,4 | z2 A,A, | G,C, F,2 | B,,B,, C,C, | F,4 | F,F, F,F, | F,2 F,2 | %10
 E,D, C,B,, | A,,4 | B,,C, D,D, | E,2 E,2 | F,F, F,F, | B,,4- | B,,4 |] %17

